X: 16381
T: Gusty's Frolics
R: slip jig
M: 9/8
K: Dmajor
|:A,DD A,DD FEF|A,DD DFA GED|A,DD A,DD FGA|GEC CEF GFE:|
|:FDF ABG ABG|FDF ABF GFE|FDF ABF ABF|GFG ECE GFE:|
|:Add Add fef|Add dfa gfe|Add Add fef|gfg ece gfe:|
|:fdf ab/a/g ab/a/g|fdf a2f gfe|fdf a>ba/g/ a>ba/g/|gbg ece gfe:|
|:afg/f/ dff dff|aff dff gfe|aff dff dff|gfg ece gfe:|
|:dfa/f/ dfa/f/ d2A|dfa/f/ dfa/f/ gfe|dfa/f/ dfa/f/ dfa/f/|gbg ece gfe:|
|:dfe dfe dAF|DFA dfa gfe|dfa/f/ dec dfa|gfg ece gfe:|
|:AFA d>ed/c/ d2D|DFA dcB AGF|DFA =cdB cBA|GEC CEF GFE:|
|:A,DD A,DD FEF|A,DD DFA GED|A,DD A,DD F2A|GEC C>DE/F/ GFE:|
|:A2A Adc/B/ A2G|AFD DED EFG|AFA BGB =cBA|GEC CDE/F/ GFE:|

